assets/gcpcloudhealthcareapi/original.svg

<svg height="24" width="24" xmlns="http://www.w3.org/2000/svg" xmlns:xlink="http://www.w3.org/1999/xlink"><mask id="a" height="16.67" maskUnits="userSpaceOnUse" width="5.33" x="9.33" y="5.33"><path d="m12 22-.83-.77v-14.56h1.66v14.56z" fill="#fff" fill-rule="evenodd"/></mask><path d="m12 22-.83-.77v-14.56h1.66v14.56z" fill="#aecbfa" fill-rule="evenodd"/><g fill="#4285f4"><path d="m12 8a2.67 2.67 0 0 0 2.67-2.67h-5.34a2.67 2.67 0 0 0 2.67 2.67" mask="url(#a)"/><path d="m12.83 18.87h-1.66v-1.54h1.66z"/><path d="m12.83 10.87h-1.66v-1.54h1.66z"/></g><circle cx="12" cy="4.67" fill="#aecbfa" r="2.67"/><path d="m16.67 10.17h-9.84a1.17 1.17 0 0 0 0 2.33h3.17v1.67h-3.17a2.84 2.84 0 0 1 0-5.67h9.84v-1.17l3.33 2-3.33 2zm-4.67-2.84a2.67 2.67 0 0 0 2.67-2.66h-5.34a2.67 2.67 0 0 0 2.67 2.66" fill="#669df6"/><path d="m13.36 16.5h.64a1.17 1.17 0 0 0 0-2.33h-1.17v-1.67h1.17a2.84 2.84 0 0 1 0 5.67h-4v1.16l-3.33-2 3.33-2v1.17z" fill="#669df6"/></svg>

<svg xmlns="http://www.w3.org/2000/svg" width="24" height="24"><defs><mask id="mask" width="5.33" height="16.67" x="9.33" y="5.33" maskUnits="userSpaceOnUse"><path id="path-1" d="m12 22-.83-.77V6.67h1.66v14.56z" fill-rule="evenodd" fill="#fff"/></mask></defs><g data-name="Product Icons"><path d="m12 22-.83-.77V6.67h1.66v14.56z" data-name="Mask" fill="#aecbfa" fill-rule="evenodd"/><path d="M12 8a2.67 2.67 0 0 0 2.67-2.67H9.33A2.67 2.67 0 0 0 12 8" fill="#4285f4" mask="url(#mask)"/><path id="Line-2" d="M12.83 18.87h-1.66v-1.54h1.66z" fill="#4285f4"/><path d="M12.83 10.87h-1.66V9.33h1.66z" fill="#4285f4"/><circle cx="12" cy="4.67" r="2.67" fill="#aecbfa"/><path d="M16.67 10.17H6.83a1.17 1.17 0 0 0 0 2.33H10v1.67H6.83a2.84 2.84 0 0 1 0-5.67h9.84V7.33l3.33 2-3.33 2ZM12 7.33a2.67 2.67 0 0 0 2.67-2.66H9.33A2.67 2.67 0 0 0 12 7.33" fill="#669df6"/><path d="M13.36 16.5H14a1.17 1.17 0 0 0 0-2.33h-1.17V12.5H14a2.84 2.84 0 0 1 0 5.67h-4v1.16l-3.33-2 3.33-2v1.17Z" fill="#669df6"/></g></svg>
